assets/svg/logo-balancer.svg

<svg width="27" height="23" xmlns="http://www.w3.org/2000/svg" xmlns:xlink="http://www.w3.org/1999/xlink"><defs><path d="M19.373 13.866c4.147.728 6.968 2.162 6.968 3.813 0 2.386-5.897 4.321-13.17 4.321C5.896 22 0 20.065 0 17.679c0-1.65 2.821-3.085 6.967-3.813 1.801.445 3.927.702 6.203.702 2.205 0 4.268-.24 6.032-.66l.171-.042zm-1.6-7.075c3.513.56 5.934 1.743 5.934 3.11 0 1.91-4.718 3.457-10.537 3.457-5.819 0-10.536-1.548-10.536-3.457 0-1.367 2.42-2.55 5.932-3.11 1.349.33 2.923.518 4.604.518 1.665 0 3.225-.185 4.565-.508l.039-.01h-.001zM13.17 1c4.365 0 7.903 1.16 7.903 2.593 0 1.431-3.538 2.592-7.903 2.592-4.364 0-7.902-1.16-7.902-2.592C5.268 2.16 8.806 1 13.17 1z" id="a"/></defs><use fill="#000" xlink:href="#a" fill-rule="evenodd"/></svg>

<?xml version="1.0" encoding="UTF-8"?>
<svg width="27px" height="23px" viewBox="0 0 27 23" version="1.1" xmlns="http://www.w3.org/2000/svg" xmlns:xlink="http://www.w3.org/1999/xlink">
    <title>Artboard</title>
    <defs>
        <path d="M19.373,13.866 C23.52,14.594 26.341,16.028 26.341,17.679 C26.341,20.065 20.444,22 13.171,22 C5.896,22 -5.32907052e-14,20.065 -5.32907052e-14,17.679 C-5.32907052e-14,16.029 2.821,14.594 6.967,13.866 C8.768,14.311 10.894,14.568 13.17,14.568 C15.375,14.568 17.438,14.328 19.202,13.908 L19.373,13.866 Z M17.773,6.791 C21.286,7.351 23.707,8.534 23.707,9.901 C23.707,11.811 18.989,13.358 13.17,13.358 C7.351,13.358 2.634,11.81 2.634,9.901 C2.634,8.534 5.054,7.351 8.566,6.791 C9.915,7.121 11.489,7.309 13.17,7.309 C14.835,7.309 16.395,7.124 17.735,6.801 L17.774,6.791 L17.773,6.791 Z M13.17,1 C17.535,1 21.073,2.16 21.073,3.593 C21.073,5.024 17.535,6.185 13.17,6.185 C8.806,6.185 5.268,5.025 5.268,3.593 C5.268,2.16 8.806,1 13.17,1 Z" id="path-1"></path>
    </defs>
    <g id="Artboard" stroke="none" stroke-width="1" fill="none" fill-rule="evenodd">
        <mask id="mask-2" fill="white">
            <use xlink:href="#path-1"></use>
        </mask>
        <use id="a" fill="#000000" xlink:href="#path-1"></use>
    </g>
</svg>
